build/images/lazyload-sidebar-big.svg

<?xml version="1.0" encoding="UTF-8"?>
<svg width="224px" height="396px" viewBox="0 0 224 396" version="1.1" xmlns="http://www.w3.org/2000/svg" xmlns:xlink="http://www.w3.org/1999/xlink">
    <!-- Generator: sketchtool 52.6 (67491) - http://www.bohemiancoding.com/sketch -->
    <title>475B1C1F-AE60-40C6-8972-8BD60C3C9EFB</title>
    <desc>Created with sketchtool.</desc>
    <g id="Symbols" stroke="none" stroke-width="1" fill="none" fill-rule="evenodd">
        <g id="UI/sidebar/light/big/lazyload">
            <g id="Group">
                <g id="graphic">
                    <rect id="Rectangle" x="0" y="0" width="224" height="396"></rect>
                    <path d="M8,15 C5.23857625,15 3,12.7614237 3,10 C3,7.23857625 5.23857625,5 8,5 C10.7614237,5 13,7.23857625 13,10 C13,12.7614237 10.7614237,15 8,15 Z M8,55 C5.23857625,55 3,52.7614237 3,50 C3,47.2385763 5.23857625,45 8,45 C10.7614237,45 13,47.2385763 13,50 C13,52.7614237 10.7614237,55 8,55 Z M8,95 C5.23857625,95 3,92.7614237 3,90 C3,87.2385763 5.23857625,85 8,85 C10.7614237,85 13,87.2385763 13,90 C13,92.7614237 10.7614237,95 8,95 Z M8,135 C5.23857625,135 3,132.761424 3,130 C3,127.238576 5.23857625,125 8,125 C10.7614237,125 13,127.238576 13,130 C13,132.761424 10.7614237,135 8,135 Z M8,175 C5.23857625,175 3,172.761424 3,170 C3,167.238576 5.23857625,165 8,165 C10.7614237,165 13,167.238576 13,170 C13,172.761424 10.7614237,175 8,175 Z M8,215 C5.23857625,215 3,212.761424 3,210 C3,207.238576 5.23857625,205 8,205 C10.7614237,205 13,207.238576 13,210 C13,212.761424 10.7614237,215 8,215 Z M32,4 L168,4 L168,16 L32,16 L32,4 Z M32,44 L152,44 L152,56 L32,56 L32,44 Z M32,84 L168,84 L168,96 L32,96 L32,84 Z M32,124 L152,124 L152,136 L32,136 L32,124 Z M32,164 L152,164 L152,176 L32,176 L32,164 Z M32,204 L152,204 L152,216 L32,216 L32,204 Z" id="Combined-Shape" fill-opacity="0.1" fill="#000000"></path>
                </g>
            </g>
        </g>
    </g>
</svg>

<svg width="224" height="396" xmlns="http://www.w3.org/2000/svg"><g fill="none" fill-rule="evenodd"><path d="M0 0h224v396H0z"/><path d="M8 15A5 5 0 118 5a5 5 0 010 10zm0 40a5 5 0 110-10 5 5 0 010 10zm0 40a5 5 0 110-10 5 5 0 010 10zm0 40a5 5 0 110-10 5 5 0 010 10zm0 40a5 5 0 110-10 5 5 0 010 10zm0 40a5 5 0 110-10 5 5 0 010 10zM32 4h136v12H32V4zm0 40h120v12H32V44zm0 40h136v12H32V84zm0 40h120v12H32v-12zm0 40h120v12H32v-12zm0 40h120v12H32v-12z" fill-opacity=".1" fill="#000"/></g></svg>
